svg/building/big_ben_line.svg

<?xml version="1.0" encoding="UTF-8"?>
<svg width="24px" height="24px" viewBox="0 0 24 24" version="1.1" xmlns="http://www.w3.org/2000/svg" xmlns:xlink="http://www.w3.org/1999/xlink">
    <title>big_en_line</title>
    <g id="页面-1" stroke="none" stroke-width="1" fill="none" fill-rule="evenodd">
        <g id="Building" transform="translate(-480.000000, -96.000000)" fill-rule="nonzero">
            <g id="big_en_line" transform="translate(480.000000, 96.000000)">
                 <path d="M24,0 L24,24 L0,24 L0,0 L24,0 Z M12.5934901,23.257841 L12.5819402,23.2595131 L12.5108777,23.2950439 L12.4918791,23.2987469 L12.4918791,23.2987469 L12.4767152,23.2950439 L12.4056548,23.2595131 C12.3958229,23.2563662 12.3870493,23.2590235 12.3821421,23.2649074 L12.3780323,23.275831 L12.360941,23.7031097 L12.3658947,23.7234994 L12.3769048,23.7357139 L12.4804777,23.8096931 L12.4953491,23.8136134 L12.4953491,23.8136134 L12.5071152,23.8096931 L12.6106902,23.7357139 L12.6232938,23.7196733 L12.6232938,23.7196733 L12.6266527,23.7031097 L12.609561,23.275831 C12.6075724,23.2657013 12.6010112,23.2592993 12.5934901,23.257841 L12.5934901,23.257841 Z M12.8583906,23.1452862 L12.8445485,23.1473072 L12.6598443,23.2396597 L12.6498822,23.2499052 L12.6498822,23.2499052 L12.6471943,23.2611114 L12.6650943,23.6906389 L12.6699349,23.7034178 L12.6699349,23.7034178 L12.678386,23.7104931 L12.8793402,23.8032389 C12.8914285,23.8068999 12.9022333,23.8029875 12.9078286,23.7952264 L12.9118235,23.7811639 L12.8776777,23.1665331 C12.8752882,23.1545897 12.8674102,23.1470016 12.8583906,23.1452862 L12.8583906,23.1452862 Z M12.1430473,23.1473072 C12.1332178,23.1423925 12.1221763,23.1452606 12.1156365,23.1525954 L12.1099173,23.1665331 L12.0757714,23.7811639 C12.0751323,23.7926639 12.0828099,23.8018602 12.0926481,23.8045676 L12.108256,23.8032389 L12.3092106,23.7104931 L12.3186497,23.7024347 L12.3186497,23.7024347 L12.3225043,23.6906389 L12.340401,23.2611114 L12.337245,23.2485176 L12.337245,23.2485176 L12.3277531,23.2396597 L12.1430473,23.1473072 Z" id="MingCute" fill-rule="nonzero"></path>
                <path d="M12,1 C12.51285,1 12.9355092,1.38604429 12.9932725,1.88337975 L13,2 L13,3.69722 L14.8321,6.4453 C14.8744333,6.50888 14.9093,6.57700222 14.9360778,6.64830074 L14.9701,6.75746 L15.2808,8 L16,8 C16.51285,8 16.9355092,8.38604429 16.9932725,8.88337975 L17,9 L17,15 C17,15.51285 16.613973,15.9355092 16.1166239,15.9932725 L16,16 L16,21 C16.5523,21 17,21.4477 17,22 C17,22.51285 16.613973,22.9355092 16.1166239,22.9932725 L16,23 L8,23 C7.44772,23 7,22.5523 7,22 C7,21.48715 7.38604429,21.0644908 7.88337975,21.0067275 L8,21 L8,16 C7.48716857,16 7.06449347,15.613973 7.0067278,15.1166239 L7,15 L7,9 C7,8.48716857 7.38604429,8.06449347 7.88337975,8.0067278 L8,8 L8.71922,8 L9.02986,6.75746 C9.04839333,6.68332667 9.07533111,6.61168667 9.11006889,6.54390593 L9.16795,6.4453 L11,3.69722 L11,2 C11,1.44772 11.4477,1 12,1 Z M14,17 L10,17 L10,21 L14,21 L14,17 Z M12,5.80278 L10.9281,7.41058 L10.4701,9.24254 C10.3589,9.6877 9.95887,10 9.5,10 L9,10 L9,14 C9.55228,14 10,14.4477 10,15 L14,15 C14,14.4477 14.4477,14 15,14 L15,10 L14.5,10 C14.0411,10 13.6411,9.6877 13.5299,9.24254 L13.0719,7.41058 L12,5.80278 Z M12,9 C12.51285,9 12.9355092,9.38603566 12.9932725,9.8833779 L13,10 L13,11 C13.5523,11 14,11.4477 14,12 C14,12.51285 13.613973,12.9355092 13.1166239,12.9932725 L13,13 L12,13 C11.48715,13 11.0644908,12.613973 11.0067275,12.1166239 L11,12 L11,10 C11,9.44771 11.4477,9 12,9 Z" id="形状" fill="#09244B"></path>
            </g>
        </g>
    </g>
</svg>

<svg xmlns="http://www.w3.org/2000/svg" width="24" height="24"><g fill="none" fill-rule="nonzero"><path d="M24 0v24H0V0h24ZM12.593 23.258l-.011.002-.071.035-.02.004-.014-.004-.071-.035c-.01-.004-.019-.001-.024.005l-.004.01-.017.428.005.02.01.013.104.074.015.004.012-.004.104-.074.012-.016.004-.017-.017-.427c-.002-.01-.009-.017-.017-.018Zm.265-.113-.013.002-.185.093-.01.01-.003.011.018.43.005.012.008.007.201.093c.012.004.023 0 .029-.008l.004-.014-.034-.614c-.003-.012-.01-.02-.02-.022Zm-.715.002a.023.023 0 0 0-.027.006l-.006.014-.034.614c0 .012.007.02.017.024l.015-.002.201-.093.01-.008.004-.011.017-.43-.003-.012-.01-.01-.184-.092Z"/><path fill="#09244B" d="M12 1a1 1 0 0 1 .993.883L13 2v1.697l1.832 2.748c.042.064.077.132.104.203l.034.11L15.28 8H16a1 1 0 0 1 .993.883L17 9v6a1 1 0 0 1-.883.993L16 16v5a1 1 0 0 1 .117 1.993L16 23H8a1 1 0 0 1-.117-1.993L8 21v-5a1 1 0 0 1-.993-.883L7 15V9a1 1 0 0 1 .883-.993L8 8h.72l.31-1.243a1 1 0 0 1 .08-.213l.058-.099L11 3.697V2a1 1 0 0 1 1-1Zm2 16h-4v4h4v-4ZM12 5.803 10.928 7.41l-.458 1.832A1 1 0 0 1 9.5 10H9v4a1 1 0 0 1 1 1h4a1 1 0 0 1 1-1v-4h-.5a1 1 0 0 1-.97-.757l-.458-1.832L12 5.803ZM12 9a1 1 0 0 1 .993.883L13 10v1a1 1 0 0 1 .117 1.993L13 13h-1a1 1 0 0 1-.993-.883L11 12v-2a1 1 0 0 1 1-1Z"/></g></svg>
